X:4114
T:Devil in the Kitchen
C:trad., as played by Buddy MacMaster
M:C
R:Strathspey
A:Cape Breton
N:Transcribed by Kate Dunlay (dungreen@total.net)
L:1/16
Q:1/4=160
K:A mixolydian
a2|:e3A AAAA e3Ag3d|e3A AAAA g4 f-a3|e3A AAAA e3Ag3d|B3G (dcB2) g4 [1fa3:|
[2f3g||a3A AAAA e3A AAAA|a3A AAAA g4 f-g3|a3A AAAA AAAA c3A|B3G (dcB2) g4 f3g|
a3A AAAA e3A AAAA|a3A AAAA g4 f-g3|(agf2) g3-e f3dg3d|B3G (dcB2) g4 fa3||
E3A, A,A,A,A, E3DG3D|E3A, A,A,A,A, G4 F3-A|E3A, A,A,A,A, E3DG3D|B,3G, (DCB,2) G4 FA3|
E3A, A,A,A,A, E3DG3D|E3A, A,A,A,A, G4 F3-A|E3A, A,A,A,A, A,A,A,A, C3A,|B,3G, (DCB,2) G4 F3A||
a3A AAAA e3Ac3A|a3A AAAA g4 f-g3|a3A AAAA AAAA c3A|B3G (dcB2) g4 f3g|
a3A AAAA e3A AAAA|a3A AAAA g4 f-g3|(agf2) g3-e f3dg3d|B3G (dcB2) g4 fa3|]
% April 1999 set of the month
